img/ui-arrow-expand-1.svg

<svg fill="none" height="22" viewBox="0 0 21 22" width="21" xmlns="http://www.w3.org/2000/svg"><g fill="#bbb"><path d="m.0976563 20.7793c0 .4142.3357867.75.7499997.75h6.750004c.41421 0 .75-.3358.75-.75s-.33579-.75-.75-.75h-6v-6c0-.4142-.33579-.75-.750004-.75s-.7499999.3358-.7499999.75zm8.9431237-7.1325c.2929-.2929.2929-.7677 0-1.0606-.29289-.2929-.76776-.2929-1.06066 0zm-7.66279 7.6628 7.66279-7.6628-1.06066-1.0606-7.662794 7.6628z"/><path d="m20.75 1.625c0-.41421-.3358-.75-.75-.75h-6.75c-.4142 0-.75.33579-.75.75s.3358.75.75.75h6v6c0 .41421.3358.75.75.75s.75-.33579.75-.75zm-8.9431 7.13247c-.2929.29289-.2929.76776 0 1.06066.2929.29287.7677.29287 1.0606 0zm7.6628-7.6628-7.6628 7.6628 1.0606 1.06066 7.6628-7.6628z"/></g></svg>

<svg width="21" height="22" viewBox="0 0 21 22" fill="none" xmlns="http://www.w3.org/2000/svg">
<path d="M0.0976563 20.7793C0.0976563 21.1935 0.433443 21.5293 0.847656 21.5293L7.59766 21.5293C8.01187 21.5293 8.34766 21.1935 8.34766 20.7793C8.34766 20.3651 8.01187 20.0293 7.59766 20.0293L1.59766 20.0293L1.59766 14.0293C1.59766 13.6151 1.26187 13.2793 0.847656 13.2793C0.433442 13.2793 0.0976561 13.6151 0.0976561 14.0293L0.0976563 20.7793ZM9.04078 13.6468C9.33368 13.3539 9.33368 12.8791 9.04078 12.5862C8.74789 12.2933 8.27302 12.2933 7.98012 12.5862L9.04078 13.6468ZM1.37799 21.3096L9.04078 13.6468L7.98012 12.5862L0.317326 20.249L1.37799 21.3096Z" fill="#BBBBBB"/>
<path d="M20.75 1.625C20.75 1.21079 20.4142 0.875 20 0.875L13.25 0.875C12.8358 0.875 12.5 1.21079 12.5 1.625C12.5 2.03921 12.8358 2.375 13.25 2.375L19.25 2.375L19.25 8.375C19.25 8.78921 19.5858 9.125 20 9.125C20.4142 9.125 20.75 8.78921 20.75 8.375L20.75 1.625ZM11.8069 8.75747C11.514 9.05036 11.514 9.52523 11.8069 9.81813C12.0998 10.111 12.5746 10.111 12.8675 9.81813L11.8069 8.75747ZM19.4697 1.09467L11.8069 8.75747L12.8675 9.81813L20.5303 2.15533L19.4697 1.09467Z" fill="#BBBBBB"/>
</svg>
